theme-map4trip/src/main/assets/themes/mapsforgeV3/map4trip/symbols/bank.svg

<svg enable-background="new 0 0 18.6 18.6" height="18.6" viewBox="0 0 18.6 18.6" width="18.6" xmlns="http://www.w3.org/2000/svg"><path d="m9.7 0-9.7 7.5h2.2v11.2h14.2v-11.2h2.2z"/><path d="m9.2 16c-.9 0-3.3-.3-3.1-1.9s1.9-.7 3.1-.5v-2.2c-1.4-.4-3.1-1.5-3.1-3.4s1.7-3.1 3.1-3.1c0-1 0-1.4.5-1.4s.5.3.5 1.4c1 0 3.4.3 2.9 1.6-.5 1.2-2.1.7-2.9.5v2.2c1.6.3 3.3 1.4 3.3 3.3s-1.6 3.4-3.3 3.4c0 1 0 1.4-.5 1.4s-.5-.3-.5-1.3zm0-7.1v-1.9c-1.2.2-1.2 1.7 0 1.9zm1 2.7v1.9c1.2-.1 1.2-1.7 0-1.9z" fill="#1adb05" stroke="#000" stroke-width=".25"/></svg>

<?xml version="1.0" encoding="utf-8"?>
<!-- Generator: Adobe Illustrator 14.0.0, SVG Export Plug-In . SVG Version: 6.00 Build 43363)  -->
<!DOCTYPE svg PUBLIC "-//W3C//DTD SVG 1.1//EN" "http://www.w3.org/Graphics/SVG/1.1/DTD/svg11.dtd">
<svg version="1.1"
	 id="bank" xmlns:xs="http://www.w3.org/2001/XMLSchema" xmlns:inkscape="http://www.inkscape.org/namespaces/inkscape" xmlns:rdf="http://www.w3.org/1999/02/22-rdf-syntax-ns#" xmlns:svg="http://www.w3.org/2000/svg" xmlns:cc="http://web.resource.org/cc/" xmlns:xi="http://www.w3.org/2001/XInclude" xmlns:dc="http://purl.org/dc/elements/1.1/"
	 xmlns="http://www.w3.org/2000/svg" xmlns:xlink="http://www.w3.org/1999/xlink" x="0px" y="0px" width="18.6px" height="18.6px"
	 viewBox="0 0 18.6 18.6" enable-background="new 0 0 18.6 18.6" xml:space="preserve">
<path d="M9.7,0L0,7.5h2.2v11.2h14.2V7.5h2.2L9.7,0z"/>
<path fill="#1ADB05" stroke="#000000" stroke-width="0.25" d="M9.2,16c-0.9,0-3.3-0.3-3.1-1.9c0.2-1.6,1.9-0.7,3.1-0.5v-2.2
	C7.8,11,6.1,9.9,6.1,8c0-1.9,1.7-3.1,3.1-3.1c0-1,0-1.4,0.5-1.4c0.5,0,0.5,0.3,0.5,1.4c1,0,3.4,0.3,2.9,1.6
	c-0.5,1.2-2.1,0.7-2.9,0.5v2.2c1.6,0.3,3.3,1.4,3.3,3.3c0,1.9-1.6,3.4-3.3,3.4c0,1,0,1.4-0.5,1.4C9.2,17.3,9.2,17,9.2,16z M9.2,8.9
	V7C8,7.2,8,8.7,9.2,8.9z M10.2,11.6v1.9C11.4,13.4,11.4,11.8,10.2,11.6z"/>
</svg>
